img/logos/puppet.svg

<?xml version="1.0" encoding="UTF-8" standalone="no"?>
<svg width="256px" height="243px" viewBox="0 0 256 243" version="1.1" xmlns="http://www.w3.org/2000/svg" xmlns:xlink="http://www.w3.org/1999/xlink" preserveAspectRatio="xMinYMin meet">
	<g>
		<path d="M104.897561,193.24878 C104.897561,193.24878 81.795122,210.419512 65.5609756,205.736585 C65.5609756,205.736585 145.482927,285.658537 228.526829,208.858537 C228.526829,208.858537 256.312195,176.702439 255.063415,152.97561 L244.136585,149.853659 C244.136585,149.853659 228.839024,225.404878 148.917073,216.039024 C149.229268,216.35122 128.936585,211.668293 104.897561,193.24878 L104.897561,193.24878 Z" fill="#EBA546"></path>
		<path d="M80.6895845,86.7902439 C80.6895845,86.7902439 78.1920235,58.0682927 90.6798284,46.8292683 C90.6798284,46.8292683 -19.2128545,73.3658537 2.95299915,184.507317 C2.95299915,184.507317 16.0651943,225.092683 36.6700723,236.331707 L44.7871455,228.526829 C44.7871455,228.526829 -11.7201716,176.078049 37.9188528,112.702439 C37.6066577,112.702439 52.2798284,97.7170732 80.6895845,86.7902439 L80.6895845,86.7902439 Z" fill="#322D6B"></path>
		<path d="M185.756098,116.755024 C185.756098,116.755024 212.292683,127.994049 216.35122,144.228195 C216.35122,144.228195 244.760976,34.9599022 136.429268,2.1794144 C136.429268,2.1794144 94.2829268,-5.31326853 74.9268293,7.48673147 L78.0487805,18.4135607 C78.0487805,18.4135607 151.102439,-6.87424414 183.570732,66.8038046 C183.258537,66.8038046 189.502439,86.4720973 185.756098,116.755024 L185.756098,116.755024 Z" fill="#7C64A5"></path>
		<path d="M144.748134,77.0017921 C135.38228,87.6164263 119.148134,88.5530116 108.533499,79.187158 C97.9188653,69.8213043 96.9822799,53.587158 106.348134,42.9725238 C115.713987,32.3578897 131.948134,31.4213043 142.562768,40.787158 C153.177402,50.1530116 154.113987,66.387158 144.748134,77.0017921 L144.748134,77.0017921 Z" fill="#7C64A5"></path>
		<path d="M79.1388731,183.099849 C69.7730194,193.714483 53.5388731,194.651068 42.9242389,185.285215 C32.3096048,175.919361 31.3730194,159.685215 41.0510682,149.07058 C50.4169218,138.455946 66.6510682,137.519361 77.2657023,147.19741 C87.5681414,156.251068 88.5047267,172.485215 79.1388731,183.099849 L79.1388731,183.099849 Z" fill="#322D6B"></path>
		<path d="M200.943256,186.270085 C191.577402,196.884719 175.343256,197.821304 164.728621,188.455451 C154.113987,179.089597 153.177402,162.855451 162.543256,152.240817 C171.909109,141.626182 188.143256,140.689597 198.75789,150.055451 C209.372524,159.421304 210.309109,175.655451 200.943256,186.270085 L200.943256,186.270085 Z" fill="#EBA546"></path>
	</g>
</svg>

<svg width="256" height="243" viewBox="0 0 256 243" xmlns="http://www.w3.org/2000/svg" preserveAspectRatio="xMinYMin meet"><path d="M104.898 193.25s-23.103 17.17-39.337 12.487c0 0 79.923 79.922 162.967 3.122 0 0 27.785-32.158 26.536-55.884l-10.926-3.122s-15.298 75.55-95.22 66.185c.312.31-19.98-4.372-44.02-22.79z" fill="#EBA546"/><path d="M80.69 86.79s-2.498-28.722 9.99-39.96c0 0-109.893 26.536-87.727 137.677 0 0 13.112 40.586 33.717 51.825l8.117-7.805s-56.507-52.45-6.868-115.825c-.313 0 14.36-14.985 42.77-25.912z" fill="#322D6B"/><path d="M185.756 116.755s26.537 11.24 30.595 27.473c0 0 28.41-109.268-79.92-142.05 0 0-42.147-7.49-61.503 5.31l3.122 10.926S151.1-6.874 183.57 66.804c-.31 0 5.932 19.668 2.186 49.95z" fill="#7C64A5"/><path d="M144.748 77.002c-9.366 10.614-25.6 11.55-36.215 2.185-10.614-9.366-11.55-25.6-2.185-36.214 9.366-10.615 25.6-11.552 36.215-2.186 10.614 9.366 11.55 25.6 2.185 36.215z" fill="#7C64A5"/><path d="M79.14 183.1c-9.367 10.614-25.6 11.55-36.216 2.185-10.614-9.366-11.55-25.6-1.873-36.214 9.367-10.614 25.6-11.55 36.216-1.873 10.302 9.054 11.24 25.288 1.873 35.903z" fill="#322D6B"/><path d="M200.943 186.27c-9.366 10.615-25.6 11.55-36.214 2.185-10.616-9.365-11.553-25.6-2.187-36.214 9.366-10.614 25.6-11.55 36.215-2.185 10.615 9.366 11.55 25.6 2.185 36.215z" fill="#EBA546"/></svg>
